X: 22477
T: Lady Birr
R: reel
M: 4/4
K: Adorian
A3 (A A)Bcd|eB ~B2 efga|gedB GABd|c2 Bc AGED|
EAAG A2 (3Bcd|eB ~B2 efga|gedB cdef|1 gedB BAAG:|2 gedB BA A2||
a2 ea ageg|a2 bg agef|g2 ef g2 ef|g2 af ge d2|a2 ea ageg|
agbg agef|1 gedB cdef|gedB BA A2:|2 gedB cdef|gedB cABG||

